X:3138
T: Schottis efter Knaft-Jonke - arr enligt Karin Arén
M: 4/4
L: 1/8
K: D
V: 1
|: vD>F A>c d2 (d>e) | d>B G>B T(B>A) A2 | A>c e<g f>a f<d | e>g (e<c) d>A F<E | 
V: 2
|: f4 d2 A2 | B4 G2 F2 | E4 F4 | G>A B<c d4 | 
V: 1
vD>F A>c d2 (d>e) | d>B G>B T(B>A) A2 | A>c e<g f>a f<d | e>g (e<c) d4 :|:
V: 2
z2 f4 (A2 | A2) B4 F2 | E4 F4 | G>A B<c d4 :|: 
V: 1
v[DA]2 a2 [_E_B]2 g2 | A>f (3(fgf) (e2 e)>c | d>e =f<g a>g f<e | d>e =f<e [e2c2] [e2A2] | 
V: 2
[=FA]4 [GA]4 | [DA]4 [EA]4 | A>c d<e =f>e d<c | A>c d<c A2 E2 |
V: 1
v[DA]2 a2 [_E_B]2 g2 | A>f f2 (e2 e)>c | d>e =f<g a>g f<e |1 d>e (3cBc d4 :|2 d>e (3cBc d4 |: 
V: 2
[=FA]4 [GA]4 | [DA]4 [EA]4 | A>c d<e =f>e d<c |1 A2 E2 =F4 :|2 A2 E2 ^F4 |:
V:1
vD>F A>c d2 (d>e) | d>B G>B T(B>A) A2 | A>c e<g f>a f<d | e>g (e<c) d>A F<E | 
V: 2
[DA]4 [FA]4 | [GA]2 [EA]2 [FA]4 | [GA]4 [FA]4 | [GA]2 [EA]2 [FA]4 | 
V: 1
vD>F A>c d2 (d>e) | d>B G>B T(B>A) A2 |1 A>c e<g f>a f<d | e>g (e<c) d4 :|2 A>c e<g f>a f<d | e>g (e<c) d4 |:
V: 2
[A,D]4 [A,D]4 | [G,D]2 [B,D]2 [A,D]4 |1 [CD]4 [B,D]4 | [_B,D]4 [A,D]4 |2 [=CD]4 [B,D]4 | [_B,D]4 [A,D]4 |:
V: 1
v[DA]2 a2 [_E_B]2 g2 | A>f (3(fgf) (e2 e)>c | d>e =f<g a>g f<e | d>e =f<e [e2c2] [e2A2] | 
V: 2
[A,D]4 [G,_E]4 | [DA]4 [EA]4 | | [=FA]4 [GA]4 | [GA]4 [AA]4 |
V: 1
v[DA]2 a2 [_E_B]2 g2 | A>f f2 (e2 e)>c | d>e =f<g a>g f<e |1 d>e (3cBc d4 :|2 d>e (3cBc d4 |] 
V: 2
[=FA]4 [GA]4 | [DA]4 [EA]4 | A>c d<e =f>e d<c |1 A2 E2 =F4 :|2 A2 E2 ^F4 |]
(:musicend:)
(:music:)
